assets/icons/bloods_colored.svg

<svg viewBox="0 0 19 28" xmlns="http://www.w3.org/2000/svg"><path d="m2.55 3.62h19v28h-19z" fill="none"/><g stroke="#000" stroke-miterlimit="10" stroke-width=".5"><path d="m12.79 16.53a40.07 40.07 0 0 0 -5.22-6.35c-.14-.14-.2 0-.29 0-1 1-2 2.09-2.92 3.21a24.35 24.35 0 0 0 -3.2 4.74 5.43 5.43 0 0 0 -.45 3.91 6.72 6.72 0 0 0 5 5c.35.1.72.16 1.07.23h1.29c0-.05.06 0 .11 0a5.85 5.85 0 0 0 1.37-.28 6.72 6.72 0 0 0 4.45-4.37 5.34 5.34 0 0 0 .27-2.77 9.81 9.81 0 0 0 -1.48-3.32zm.28 5.95a5.76 5.76 0 0 1 -4.54 3.78 6 6 0 0 1 -6.91-4.34 4.72 4.72 0 0 1 .38-3.3 18 18 0 0 1 2-3.23 43.09 43.09 0 0 1 3.2-3.79l.24-.24a36.65 36.65 0 0 1 4.82 6 9.31 9.31 0 0 1 1 2.07 4.48 4.48 0 0 1 -.19 3.05z"/><path d="m6 6.67a2.25 2.25 0 0 0 2.12-1.26 1.45 1.45 0 0 0 .07-1.41 17.51 17.51 0 0 0 -1.25-2.06c-.28-.4-.6-.77-.85-1.2h-.09a27.4 27.4 0 0 0 -2 3 1.61 1.61 0 0 0 -.18 1.26 2.29 2.29 0 0 0 2.18 1.67zm-1.28-2.22a11.14 11.14 0 0 1 1.34-2.17 12.51 12.51 0 0 1 1.3 2.13.48.48 0 0 1 0 .37 1.34 1.34 0 0 1 -1.32 1 1.39 1.39 0 0 1 -1.34-1 .42.42 0 0 1 .02-.33z"/><path d="m18 7a29.61 29.61 0 0 0 -1.92-3c-.55-.72-1.12-1.42-1.74-2.11a30.34 30.34 0 0 0 -3.59 4.9 3.33 3.33 0 0 0 -.48 2.42 4.18 4.18 0 0 0 6.3 2.61 3.65 3.65 0 0 0 1.43-4.82zm-1.8 4a3.15 3.15 0 0 1 -3.29.25 3 3 0 0 1 -1.79-2.7 1.78 1.78 0 0 1 .26-.94 20 20 0 0 1 2.41-3.61l.55-.68c.47.55.91 1.11 1.33 1.68a16.37 16.37 0 0 1 1.51 2.37 2.7 2.7 0 0 1 -.97 3.63z"/><path d="m6.71 23.67a1.52 1.52 0 0 1 -.42-.06 3.15 3.15 0 0 1 -2.5-2.61c-.07-.44-.07-.44-.5-.44a.33.33 0 0 1 -.14 0c-.28-.06-.36.08-.31.32s0 .22.05.33a4.11 4.11 0 0 0 3.71 3.36c.38 0 .38 0 .38-.34a1 1 0 0 1 .02-.23c0-.22 0-.36-.29-.33z"/></g></svg>

<svg id="Layer_1" data-name="Layer 1" xmlns="http://www.w3.org/2000/svg" viewBox="0 0 19 28"><rect x="2.55" y="3.62" width="19" height="28" fill="none"/><path d="M12.79,16.53a40.07,40.07,0,0,0-5.22-6.35c-.14-.14-.2,0-.29,0-1,1-2,2.09-2.92,3.21a24.35,24.35,0,0,0-3.2,4.74,5.43,5.43,0,0,0-.45,3.91,6.72,6.72,0,0,0,5,5c.35.1.72.16,1.07.23H8.07c0-.05.06,0,.11,0a5.85,5.85,0,0,0,1.37-.28A6.72,6.72,0,0,0,14,22.62a5.34,5.34,0,0,0,.27-2.77A9.81,9.81,0,0,0,12.79,16.53Zm.28,5.95a5.76,5.76,0,0,1-4.54,3.78,6,6,0,0,1-6.91-4.34A4.72,4.72,0,0,1,2,18.62a18,18,0,0,1,2-3.23A43.09,43.09,0,0,1,7.2,11.6l.24-.24a36.65,36.65,0,0,1,4.82,6,9.31,9.31,0,0,1,1,2.07A4.48,4.48,0,0,1,13.07,22.48Z" stroke="#000" stroke-miterlimit="10" stroke-width="0.5"/><path d="M6,6.67A2.25,2.25,0,0,0,8.12,5.41,1.45,1.45,0,0,0,8.19,4,17.51,17.51,0,0,0,6.94,1.94c-.28-.4-.6-.77-.85-1.2H6a27.4,27.4,0,0,0-2,3A1.61,1.61,0,0,0,3.82,5,2.29,2.29,0,0,0,6,6.67ZM4.72,4.45A11.14,11.14,0,0,1,6.06,2.28a12.51,12.51,0,0,1,1.3,2.13.48.48,0,0,1,0,.37,1.34,1.34,0,0,1-1.32,1,1.39,1.39,0,0,1-1.34-1A.42.42,0,0,1,4.72,4.45Z" stroke="#000" stroke-miterlimit="10" stroke-width="0.5"/><path d="M18,7A29.61,29.61,0,0,0,16.08,4c-.55-.72-1.12-1.42-1.74-2.11a30.34,30.34,0,0,0-3.59,4.9,3.33,3.33,0,0,0-.48,2.42,4.18,4.18,0,0,0,6.3,2.61A3.65,3.65,0,0,0,18,7Zm-1.8,4a3.15,3.15,0,0,1-3.29.25,3,3,0,0,1-1.79-2.7,1.78,1.78,0,0,1,.26-.94A20,20,0,0,1,13.79,4l.55-.68c.47.55.91,1.11,1.33,1.68a16.37,16.37,0,0,1,1.51,2.37A2.7,2.7,0,0,1,16.21,11Z" stroke="#000" stroke-miterlimit="10" stroke-width="0.5"/><path d="M6.71,23.67a1.52,1.52,0,0,1-.42-.06A3.15,3.15,0,0,1,3.79,21c-.07-.44-.07-.44-.5-.44a.33.33,0,0,1-.14,0c-.28-.06-.36.08-.31.32s0,.22.05.33A4.11,4.11,0,0,0,6.6,24.57c.38,0,.38,0,.38-.34A1,1,0,0,1,7,24C7,23.78,7,23.64,6.71,23.67Z" stroke="#000" stroke-miterlimit="10" stroke-width="0.5"/></svg>
